X: 3
T: The Coachman's Whip
R: reel
M: 4/4
L: 1/8
K: Gmaj
ge|d2GG G2Bd|e2dB A2GA|BEE2 BGAB|BGGE Dgge|d2GG G2Bd|e2dB A2GA|BGAG EDBA|GEED G2:||B2AG EDBA|G2AD EDBA|B2AG EDBA|BEE2 B2GA|B2AG EDBA|G2AD EDBA|B2AG EDBA|BDAE G4:||


Tune 2227	Setting 2227

